packages/tokens/icons/external/size24Px.svg

<svg viewBox="0 0 24 24" fill="none" xmlns="http://www.w3.org/2000/svg" width="1em" height="1em"><path d="M10.5 5.98877L4.64167 6.07664C3.73104 6.0903 3 6.8324 3 7.74312V19.4346C3 20.3551 3.74619 21.1013 4.66667 21.1013H16.3333C17.2538 21.1013 18 20.3551 18 19.4346V13.6013" stroke="currentColor" stroke-linecap="round" stroke-linejoin="round"/><path d="M12 11.9999L20.288 3.71195M13.8323 3.38918L20.6108 3.38916L20.6108 10.1677" stroke="currentColor" stroke-linecap="round" stroke-linejoin="round"/></svg>

<svg xmlns="http://www.w3.org/2000/svg" fill="none" viewBox="0 0 24 24" width="1em" height="1em"><path stroke="currentColor" stroke-linecap="round" stroke-linejoin="round" d="m10.5 5.989-5.858.088A1.667 1.667 0 0 0 3 7.743v11.692c0 .92.746 1.666 1.667 1.666h11.666c.92 0 1.667-.746 1.667-1.666V13.6M12 12l8.288-8.288m-6.456-.323h6.779v6.779"/></svg>
